X: 122
T: Timmy Clifford's Jig
Z: Transcribed to abc by Mary Lou Knack
R: jig
M: 6/8
K: G
DB, \
| "G"G,>B,D "C"E2D | "D7"EGF "G"GDB, | "G"G,>B,D "C"C2B | "D"AGF "G"G3 |
| "G"G,>B,D "C"E2D | "D7"EGF "G"GAB | "G"d3 B3 | "D"AGF "G"G :|
|: Bd \
| "C"e>fe "G"d2B | BAG GBd | "C"e>fe "G"d2B | BAG "D"A>gf |
| "C"e>fe "G"d2B | BAG GAB | "C"c3 "G"B3 | "D"AGF "G"G |]

%%sep 1 1 500

